X:2094
T:Hambo efter Enbergarna
R:Hambo
S:Spelad av Verner Öhrwall
O:Långsjön, Norrbotten
Z:Johan Dahlberg
M:3/4
L:1/16
K:G

|:A2>^G2 A2>B2 A2>=G2 | F2>A2 d2>f2 a2>f2 | e2>f2 g2>e2 c2>e2 | d2>e2 f2>d2 A4 | A2>^G2 A2>B2 A2>=G2 |
F2>A2 d2>f2 a2>f2 | e2>f2 g2>e2 c2>e2 | d4 d8 ::[K:G] [g4B4D4] [g8B8D8] |
[e4c4E4] [e8c8E8] | D2>F2 A2>c2 B2>A2 | G2>A2 B2>c2 d4 | [g4B4D4] [g8B8D8] |
[e4c4E4] [e8c8E8] | D2>F2 A2>c2 B2>A2 | G4 G4 :|

(:musicend:)
(:music:)
